icon-themes/sifr_svg/cmd/lc_transformdialog.svg

<svg viewBox="0 0 24 24" xmlns="http://www.w3.org/2000/svg"><path d="m4 2v2h-2v2h4v-4zm14 0v4h4v-2h-2v-2zm-16 6v8h20v-8zm2 2h2v3h2v-3h3v3h2v-3h3v3h2v-3h2v4h-16zm-2 8v2h2v2h2v-4zm16 0v4h2v-2h2v-2z" fill="#555753"/></svg>

<svg xmlns="http://www.w3.org/2000/svg" viewBox="0 0 24 24">
  <path
     style="fill:#555753"
     d="M 4 2 L 4 4 L 2 4 L 2 6 L 6 6 L 6 2 L 4 2 z M 18 2 L 18 6 L 22 6 L 22 4 L 20 4 L 20 2 L 18 2 z M 2 8 L 2 16 L 22 16 L 22 8 L 2 8 z M 4 10 L 6 10 L 6 13 L 8 13 L 8 10 L 11 10 L 11 13 L 13 13 L 13 10 L 16 10 L 16 13 L 18 13 L 18 10 L 20 10 L 20 14 L 4 14 L 4 10 z M 2 18 L 2 20 L 4 20 L 4 22 L 6 22 L 6 18 L 2 18 z M 18 18 L 18 22 L 20 22 L 20 20 L 22 20 L 22 18 L 18 18 z "
     />
</svg>
